;FLAVOR:Marlin
;TIME:1652
;Filament used: 1.05954m
;Layer height: 0.2
;MINX:146.499
;MINY:164.234
;MINZ:0.2
;MAXX:213.503
;MAXY:195.766
;MAXZ:12
;Generated with Creality Slicer 4.8.2-146
M140 S60
M105
M190 S60
M104 S200
M105
M109 S200
M82 ;absolute extrusion mode
M201 X500.00 Y500.00 Z100.00 E5000.00 ;Setup machine max acceleration
M203 X500.00 Y500.00 Z10.00 E50.00 ;Setup machine max feedrate
M204 P500.00 R1000.00 T500.00 ;Setup Print/Retract/Travel acceleration
M205 X8.00 Y8.00 Z0.40 E5.00 ;Setup Jerk
M220 S100 ;Reset Feedrate
M221 S100 ;Reset Flowrate

G28 ;Home

G92 E0 ;Reset Extruder
G1 Z2.0 F3000 ;Move Z Axis up
G1 X10.1 Y20 Z0.28 F5000.0 ;Move to start position
G1 X10.1 Y200.0 Z0.28 F1500.0 E15 ;Draw the first line
G1 X10.4 Y200.0 Z0.28 F5000.0 ;Move to side a little
G1 X10.4 Y20 Z0.28 F1500.0 E30 ;Draw the second line
G92 E0 ;Reset Extruder
G1 Z2.0 F3000 ;Move Z Axis up

G92 E0
G92 E0
G1 F2100 E-1
;LAYER_COUNT:60
;LAYER:0
M107
G0 F6000 X151.482 Y168.492 Z0.2
;TYPE:SKIRT
G1 F2100 E0
G1 F1200 X152.182 Y167.868 E0.03119
G1 X152.7 Y167.469 E0.05294
G1 X153.203 Y167.105 E0.07359
G1 X153.449 Y166.931 E0.08361
G1 X153.594 Y166.832 E0.08945
G1 X154.391 Y166.337 E0.12065
G1 X154.987 Y166.024 E0.14304
G1 X155.713 Y165.671 E0.16989
G1 X156.573 Y165.298 E0.20107
G1 X157.499 Y164.988 E0.23355
G1 X158.321 Y164.753 E0.26199
G1 X159.233 Y164.534 E0.29318
G1 X160.177 Y164.391 E0.32494
G1 X160.795 Y164.325 E0.34561
G1 X161.183 Y164.291 E0.35856
G1 X161.408 Y164.275 E0.36607
G1 X162.012 Y164.248 E0.38618
G1 X162.826 Y164.235 E0.41325
G1 X201.075 Y164.234 E1.68542
G1 X201.922 Y164.245 E1.71359
G1 X202.858 Y164.299 E1.74478
G1 X203.496 Y164.382 E1.76618
G1 X203.734 Y164.42 E1.77419
G1 X204.653 Y164.607 E1.80538
G1 X205.553 Y164.872 E1.83659
G1 X206.427 Y165.212 E1.86778
G1 X207.326 Y165.657 E1.90114
G1 X207.579 Y165.797 E1.91076
G1 X208.379 Y166.286 E1.94195
G1 X209.135 Y166.841 E1.97314
G1 X209.841 Y167.459 E2.00435
G1 X210.541 Y168.19 E2.03801
G1 X210.678 Y168.347 E2.04494
G1 X211.264 Y169.079 E2.07613
G1 X211.786 Y169.859 E2.10734
G1 X212.239 Y170.68 E2.13853
G1 X212.642 Y171.592 E2.17169
G1 X212.747 Y171.862 E2.18133
G1 X213.049 Y172.75 E2.21253
G1 X213.275 Y173.66 E2.24371
G1 X213.422 Y174.586 E2.2749
G1 X213.473 Y175.145 E2.29357
G1 X213.498 Y175.84 E2.3167
G1 X213.5 Y176.356 E2.33386
G1 X213.485 Y179.854 E2.4502
G1 X213.503 Y180.98 E2.48766
G1 X213.476 Y181.939 E2.51957
G1 X213.449 Y182.315 E2.53211
G1 X213.422 Y182.63 E2.54262
G1 X213.397 Y182.878 E2.55091
G1 X213.263 Y183.807 E2.58213
G1 X213.119 Y184.461 E2.6044
G1 X213.013 Y184.882 E2.61884
G1 X212.901 Y185.299 E2.6332
G1 X212.612 Y186.192 E2.66442
G1 X212.336 Y186.865 E2.68862
G1 X212.157 Y187.264 E2.70316
G1 X212.039 Y187.519 E2.71251
G1 X211.956 Y187.692 E2.71889
G1 X211.514 Y188.52 E2.75011
G1 X211.14 Y189.111 E2.77337
G1 X210.876 Y189.5 E2.789
G1 X210.623 Y189.86 E2.80364
G1 X210.045 Y190.599 E2.83484
G1 X209.565 Y191.126 E2.85855
G1 X209.29 Y191.409 E2.87168
G1 X209.083 Y191.617 E2.88144
G1 X208.919 Y191.777 E2.88906
G1 X208.22 Y192.402 E2.92024
G1 X207.702 Y192.803 E2.94203
G1 X207.406 Y193.018 E2.9542
G1 X207.126 Y193.214 E2.96557
G1 X206.926 Y193.35 E2.97361
G1 X206.129 Y193.844 E3.0048
G1 X205.57 Y194.137 E3.02579
G1 X205.132 Y194.351 E3.04201
G1 X204.792 Y194.51 E3.05449
G1 X204.66 Y194.569 E3.0593
G1 X203.788 Y194.915 E3.0905
G1 X203.2 Y195.102 E3.11102
G1 X202.781 Y195.222 E3.12552
G1 X202.447 Y195.312 E3.13702
G1 X202.261 Y195.359 E3.1434
G1 X201.343 Y195.55 E3.17459
G1 X200.72 Y195.633 E3.1955
G1 X200.303 Y195.677 E3.20944
G1 X199.936 Y195.71 E3.2217
G1 X199.727 Y195.725 E3.22867
G1 X199.114 Y195.752 E3.24908
G1 X198.291 Y195.765 E3.27645
G1 X162.931 Y195.766 E4.45253
G1 X162.114 Y195.756 E4.47971
G1 X161.469 Y195.728 E4.50118
G1 X160.971 Y195.692 E4.51779
G1 X160.645 Y195.664 E4.52867
G1 X160.293 Y195.628 E4.54044
G1 X159.365 Y195.493 E4.57163
G1 X158.719 Y195.35 E4.59363
G1 X158.216 Y195.223 E4.61089
G1 X157.979 Y195.161 E4.61904
G1 X157.704 Y195.085 E4.62853
G1 X156.811 Y194.796 E4.65974
G1 X156.127 Y194.516 E4.68433
G1 X155.606 Y194.282 E4.70332
G1 X155.328 Y194.153 E4.71352
G1 X155.092 Y194.039 E4.72223
G1 X154.266 Y193.595 E4.75342
G1 X153.706 Y193.24 E4.77548
G1 X153.284 Y192.954 E4.79243
G1 X153.026 Y192.774 E4.80289
G1 X152.765 Y192.586 E4.81359
G1 X152.028 Y192.005 E4.84481
G1 X151.539 Y191.559 E4.86682
G1 X151.183 Y191.214 E4.88331
G1 X150.95 Y190.982 E4.89424
G1 X150.742 Y190.768 E4.90417
G1 X150.118 Y190.068 E4.93536
G1 X149.722 Y189.554 E4.95694
G1 X149.362 Y189.057 E4.97735
G1 X149.183 Y188.803 E4.98769
G1 X149.08 Y188.652 E4.99377
G1 X148.585 Y187.855 E5.02497
G1 X148.274 Y187.263 E5.04721
G1 X147.921 Y186.537 E5.07406
G1 X147.548 Y185.677 E5.10524
G1 X147.238 Y184.751 E5.13772
G1 X147.003 Y183.929 E5.16616
G1 X146.784 Y183.017 E5.19735
G1 X146.641 Y182.07 E5.22921
G1 X146.574 Y181.441 E5.25024
G1 X146.539 Y181.045 E5.26347
G1 X146.524 Y180.831 E5.2706
G1 X146.501 Y180.351 E5.28658
G1 X146.499 Y180.275 E5.28911
G1 X146.525 Y179.178 E5.32561
G1 X146.561 Y178.689 E5.34192
G1 X146.587 Y178.386 E5.35203
G1 X146.621 Y178.051 E5.36323
G1 X146.756 Y177.123 E5.39442
G1 X146.899 Y176.47 E5.41666
G1 X147.033 Y175.939 E5.43487
G1 X147.108 Y175.66 E5.44448
G1 X147.177 Y175.414 E5.45298
G1 X147.468 Y174.523 E5.48415
G1 X147.73 Y173.885 E5.50709
G1 X147.964 Y173.363 E5.52612
G1 X148.097 Y173.078 E5.53658
G1 X148.211 Y172.842 E5.5453
G1 X148.655 Y172.016 E5.57649
G1 X149.01 Y171.457 E5.59851
G1 X149.3 Y171.029 E5.61571
G1 X149.486 Y170.762 E5.62653
G1 X149.67 Y170.507 E5.63699
G1 X150.25 Y169.771 E5.66816
G1 X150.691 Y169.289 E5.68988
G1 X151.036 Y168.933 E5.70637
G1 X151.268 Y168.7 E5.71731
G1 X151.482 Y168.492 E5.72724
G0 F6000 X151.761 Y168.779
G1 F1200 X152.448 Y168.166 E5.75786
G1 X152.935 Y167.793 E5.77826
G1 X153.438 Y167.429 E5.79891
G1 X153.675 Y167.262 E5.80856
G1 X153.82 Y167.163 E5.8144
G1 X154.602 Y166.677 E5.84502
G1 X155.162 Y166.384 E5.86604
G1 X155.888 Y166.031 E5.89289
G1 X156.733 Y165.665 E5.92352
G1 X157.609 Y165.372 E5.95424
G1 X158.431 Y165.137 E5.98267
G1 X159.327 Y164.923 E6.01331
G1 X160.219 Y164.789 E6.04332
G1 X160.837 Y164.723 E6.06399
G1 X161.211 Y164.69 E6.07647
G1 X161.436 Y164.674 E6.08398
G1 X162.019 Y164.648 E6.10339
G1 X163.002 Y164.634 E6.13608
G1 X201.075 Y164.634 E7.4024
G1 X201.916 Y164.645 E7.43037
G1 X202.835 Y164.698 E7.46099
G1 X203.433 Y164.777 E7.48105
G1 X203.671 Y164.815 E7.48907
G1 X204.573 Y164.999 E7.51969
G1 X205.456 Y165.261 E7.55032
G1 X206.312 Y165.599 E7.58093
G1 X207.132 Y166.007 E7.61139
G1 X207.385 Y166.147 E7.62101
G1 X208.171 Y166.628 E7.65166
G1 X208.911 Y167.174 E7.68225
G1 X209.602 Y167.783 E7.71288
G1 X210.24 Y168.453 E7.74365
G1 X210.377 Y168.61 E7.75058
G1 X210.951 Y169.329 E7.78118
G1 X211.461 Y170.095 E7.81179
G1 X211.903 Y170.903 E7.84242
G1 X212.269 Y171.737 E7.87272
G1 X212.374 Y172.007 E7.88235
G1 X212.67 Y172.879 E7.91298
G1 X212.89 Y173.773 E7.9436
G1 X213.07 Y175.128 E7.98906
G1 X213.098 Y175.842 E8.01283
G1 X213.1 Y176.354 E8.02986
G1 X213.085 Y179.858 E8.1464
G1 X213.103 Y180.986 E8.18393
G1 X213.077 Y181.91 E8.21467
G1 X213.05 Y182.286 E8.22721
G1 X213.024 Y182.59 E8.23736
G1 X212.999 Y182.838 E8.24565
G1 X212.867 Y183.749 E8.27626
G1 X212.731 Y184.363 E8.29718
G1 X212.625 Y184.784 E8.31162
G1 X212.515 Y185.193 E8.32571
G1 X212.231 Y186.068 E8.3563
G1 X211.971 Y186.701 E8.37906
G1 X211.792 Y187.1 E8.39361
G1 X211.678 Y187.346 E8.40263
G1 X211.595 Y187.519 E8.40901
G1 X211.161 Y188.331 E8.43963
G1 X210.809 Y188.886 E8.46149
G1 X210.545 Y189.275 E8.47713
G1 X210.297 Y189.627 E8.49145
G1 X209.73 Y190.352 E8.52206
G1 X209.278 Y190.847 E8.54436
G1 X209.003 Y191.13 E8.55748
G1 X208.803 Y191.33 E8.56689
G1 X208.639 Y191.49 E8.57451
G1 X207.953 Y192.104 E8.60513
G1 X207.466 Y192.479 E8.62557
G1 X207.17 Y192.694 E8.63774
G1 X206.901 Y192.883 E8.64867
G1 X206.701 Y193.019 E8.65672
G1 X205.918 Y193.504 E8.68735
G1 X205.394 Y193.778 E8.70702
G1 X204.956 Y193.992 E8.72323
G1 X204.628 Y194.145 E8.73527
G1 X204.496 Y194.204 E8.74008
G1 X203.64 Y194.543 E8.7707
G1 X203.089 Y194.717 E8.78992
G1 X202.67 Y194.837 E8.80442
G1 X202.349 Y194.924 E8.81548
G1 X202.163 Y194.971 E8.82186
G1 X201.261 Y195.158 E8.8525
G1 X200.678 Y195.235 E8.87206
G1 X200.261 Y195.279 E8.886
G1 X199.908 Y195.311 E8.89779
G1 X199.699 Y195.326 E8.90476
G1 X199.107 Y195.352 E8.92447
G1 X198.117 Y195.366 E8.9574
G1 X162.788 Y195.365 E10.13245
G1 X162.119 Y195.356 E10.1547
G1 X161.498 Y195.329 E10.17538
G1 X161 Y195.293 E10.19198
G1 X160.686 Y195.266 E10.20247
G1 X160.334 Y195.23 E10.21423
G1 X159.423 Y195.097 E10.24486
G1 X158.817 Y194.962 E10.2655
G1 X158.314 Y194.835 E10.28276
G1 X158.085 Y194.775 E10.29063
G1 X157.81 Y194.699 E10.30012
G1 X156.934 Y194.415 E10.33075
G1 X156.291 Y194.151 E10.35387
G1 X155.77 Y193.917 E10.37287
G1 X155.502 Y193.793 E10.38269
G1 X155.266 Y193.679 E10.39141
G1 X154.456 Y193.243 E10.422
G1 X153.93 Y192.909 E10.44272
G1 X153.508 Y192.623 E10.45968
G1 X153.26 Y192.449 E10.46976
G1 X152.999 Y192.261 E10.48045
G1 X152.276 Y191.691 E10.51108
G1 X151.817 Y191.272 E10.53175
G1 X151.461 Y190.927 E10.54824
G1 X151.237 Y190.703 E10.55877
G1 X151.029 Y190.489 E10.5687
G1 X150.416 Y189.802 E10.59932
G1 X150.045 Y189.319 E10.61958
G1 X149.685 Y188.822 E10.63999
G1 X149.513 Y188.577 E10.64995
G1 X149.41 Y188.426 E10.65602
G1 X148.925 Y187.644 E10.68663
G1 X148.634 Y187.088 E10.7075
G1 X148.281 Y186.362 E10.73435
G1 X147.915 Y185.517 E10.76498
G1 X147.622 Y184.641 E10.7957
G1 X147.387 Y183.819 E10.82414
G1 X147.173 Y182.923 E10.85478
G1 X147.039 Y182.028 E10.88488
G1 X146.972 Y181.399 E10.90592
G1 X146.938 Y181.017 E10.91867
G1 X146.923 Y180.803 E10.92581
G1 X146.899 Y180.265 E10.94372
G1 X146.924 Y179.208 E10.97888
G1 X146.96 Y178.719 E10.99519
G1 X146.985 Y178.427 E11.00494
G1 X147.019 Y178.092 E11.01614
G1 X147.152 Y177.181 E11.04676
G1 X147.287 Y176.568 E11.06764
G1 X147.421 Y176.037 E11.08585
G1 X147.493 Y175.768 E11.09511
G1 X147.562 Y175.522 E11.10361
G1 X147.849 Y174.647 E11.13424
G1 X148.095 Y174.049 E11.15575
G1 X148.329 Y173.527 E11.17477
G1 X148.457 Y173.252 E11.18486
G1 X148.571 Y173.016 E11.19358
G1 X149.007 Y172.206 E11.22418
G1 X149.341 Y171.681 E11.24487
G1 X149.631 Y171.253 E11.26207
G1 X149.81 Y170.996 E11.27248
G1 X149.994 Y170.741 E11.28294
G1 X150.565 Y170.019 E11.31356
G1 X150.978 Y169.567 E11.33392
G1 X151.323 Y169.211 E11.35041
G1 X151.547 Y168.987 E11.36095
G1 X151.761 Y168.779 E11.37087
G0 F6000 X152.04 Y169.066
G1 F1200 X152.715 Y168.466 E11.40091
G1 X153.169 Y168.117 E11.41996
G1 X153.672 Y167.753 E11.44061
G1 X153.901 Y167.592 E11.44992
G1 X154.046 Y167.493 E11.45576
G1 X154.813 Y167.017 E11.48578
G1 X155.337 Y166.744 E11.50543
G1 X156.063 Y166.391 E11.53228
G1 X156.892 Y166.032 E11.56233
G1 X157.719 Y165.757 E11.59132
G1 X158.541 Y165.522 E11.61975
G1 X159.42 Y165.312 E11.64981
G1 X160.262 Y165.187 E11.67812
G1 X160.88 Y165.121 E11.69879
G1 X161.239 Y165.089 E11.71078
G1 X161.464 Y165.073 E11.71828
G1 X162.025 Y165.048 E11.73696
G1 X163.002 Y165.034 E11.76946
G1 X201.075 Y165.034 E13.03577
G1 X201.91 Y165.045 E13.06355
G1 X202.812 Y165.098 E13.0936
G1 X203.37 Y165.172 E13.11232
G1 X203.608 Y165.21 E13.12034
G1 X204.493 Y165.391 E13.15038
G1 X205.358 Y165.651 E13.18042
G1 X206.197 Y165.985 E13.21046
G1 X206.939 Y166.357 E13.23807
G1 X207.192 Y166.497 E13.24768
G1 X207.962 Y166.969 E13.27772
G1 X208.687 Y167.507 E13.30775
G1 X209.362 Y168.107 E13.33779
G1 X209.938 Y168.716 E13.36567
G1 X210.075 Y168.873 E13.3726
G1 X210.638 Y169.579 E13.40263
G1 X211.137 Y170.332 E13.43268
G1 X211.567 Y171.126 E13.46271
G1 X211.896 Y171.882 E13.49013
G1 X212.001 Y172.152 E13.49977
G1 X212.291 Y173.007 E13.5298
G1 X212.504 Y173.885 E13.55985
G1 X212.671 Y175.155 E13.60245
G1 X212.698 Y175.844 E13.62538
G1 X212.7 Y176.352 E13.64228
G1 X212.685 Y179.863 E13.75906
G1 X212.703 Y180.993 E13.79665
G1 X212.678 Y181.882 E13.82623
G1 X212.651 Y182.258 E13.83876
G1 X212.626 Y182.55 E13.84851
G1 X212.601 Y182.798 E13.8568
G1 X212.47 Y183.692 E13.88685
G1 X212.343 Y184.265 E13.90637
G1 X212.176 Y184.92 E13.92886
G1 X212.13 Y185.086 E13.93459
G1 X211.85 Y185.945 E13.96464
G1 X211.606 Y186.537 E13.98593
G1 X211.427 Y186.936 E14.00048
G1 X211.317 Y187.173 E14.00917
G1 X211.234 Y187.346 E14.01555
G1 X210.808 Y188.142 E14.04558
G1 X210.478 Y188.662 E14.06606
G1 X210.214 Y189.051 E14.0817
G1 X209.972 Y189.394 E14.09566
G1 X209.415 Y190.105 E14.1257
G1 X208.991 Y190.568 E14.14658
G1 X208.716 Y190.851 E14.15971
G1 X208.524 Y191.044 E14.16876
G1 X208.36 Y191.204 E14.17638
G1 X207.686 Y191.805 E14.20642
G1 X207.231 Y192.156 E14.22553
G1 X206.935 Y192.371 E14.2377
G1 X206.677 Y192.553 E14.2482
G1 X206.477 Y192.689 E14.25624
G1 X205.708 Y193.163 E14.28629
G1 X205.219 Y193.419 E14.30465
G1 X204.781 Y193.633 E14.32086
G1 X204.465 Y193.78 E14.33245
G1 X204.333 Y193.839 E14.33726
G1 X203.493 Y194.171 E14.3673
G1 X202.979 Y194.333 E14.38523
G1 X202.56 Y194.453 E14.39972
G1 X202.251 Y194.536 E14.41037
G1 X202.065 Y194.583 E14.41675
G1 X201.18 Y194.765 E14.4468
G1 X200.636 Y194.838 E14.46505
G1 X200.219 Y194.882 E14.479
G1 X199.879 Y194.912 E14.49035
G1 X199.67 Y194.927 E14.49732
G1 X199.101 Y194.952 E14.51627
G1 X198.117 Y194.966 E14.549
G1 X162.794 Y194.965 E15.72384
G1 X162.125 Y194.956 E15.7461
G1 X161.527 Y194.93 E15.76601
G1 X161.029 Y194.894 E15.78261
G1 X160.726 Y194.868 E15.79273
G1 X160.374 Y194.832 E15.8045
G1 X159.481 Y194.701 E15.83452
G1 X158.915 Y194.575 E15.8538
G1 X158.412 Y194.448 E15.87106
G1 X157.917 Y194.313 E15.88812
G1 X157.058 Y194.035 E15.91815
G1 X156.455 Y193.787 E15.93984
G1 X155.934 Y193.553 E15.95883
G1 X155.676 Y193.433 E15.9683
G1 X155.44 Y193.319 E15.97701
G1 X154.645 Y192.89 E16.00706
G1 X154.155 Y192.578 E16.02638
G1 X153.733 Y192.292 E16.04334
G1 X153.493 Y192.124 E16.05308
G1 X153.232 Y191.936 E16.06378
G1 X152.524 Y191.377 E16.09378
G1 X152.096 Y190.985 E16.11309
G1 X151.74 Y190.64 E16.12957
G1 X151.524 Y190.424 E16.13973
G1 X151.316 Y190.21 E16.14966
G1 X150.716 Y189.535 E16.1797
G1 X150.369 Y189.085 E16.1986
G1 X150.009 Y188.588 E16.21901
G1 X149.741 Y188.201 E16.23467
G1 X149.265 Y187.433 E16.26472
G1 X148.994 Y186.913 E16.28422
G1 X148.641 Y186.187 E16.31107
G1 X148.282 Y185.358 E16.34112
G1 X148.007 Y184.531 E16.3701
G1 X147.772 Y183.709 E16.39854
G1 X147.562 Y182.83 E16.4286
G1 X147.436 Y181.985 E16.45701
G1 X147.369 Y181.356 E16.47805
G1 X147.337 Y180.989 E16.49031
G1 X147.322 Y180.775 E16.49744
G1 X147.299 Y180.254 E16.51479
G1 X147.323 Y179.237 E16.54862
G1 X147.359 Y178.748 E16.56493
G1 X147.383 Y178.467 E16.57431
G1 X147.417 Y178.132 E16.58551
G1 X147.548 Y177.238 E16.61556
G1 X147.675 Y176.666 E16.63505
G1 X147.809 Y176.135 E16.65326
G1 X147.878 Y175.876 E16.66218
G1 X147.947 Y175.63 E16.67068
G1 X148.229 Y174.772 E16.70072
G1 X148.46 Y174.213 E16.72083
G1 X148.694 Y173.691 E16.73986
G1 X148.817 Y173.426 E16.74958
G1 X148.931 Y173.19 E16.75829
G1 X149.36 Y172.395 E16.78834
G1 X149.672 Y171.905 E16.80766
G1 X149.962 Y171.477 E16.82486
G1 X150.135 Y171.231 E16.83486
G1 X150.319 Y170.976 E16.84532
G1 X150.879 Y170.267 E16.87537
G1 X151.265 Y169.846 E16.89436
G1 X151.61 Y169.49 E16.91085
G1 X151.826 Y169.274 E16.92101
G1 X152.04 Y169.066 E16.93094
G1 F2100 E15.93094
;MESH:Anita_Clip_Rounded02.stl
G0 F6000 X157.594 Y177.192
G0 X158.482 Y177.813
G0 X158.628 Y180.679
G0 X158.794 Y181.292
G0 X159.234 Y182.117
G0 X159.747 Y182.693
G0 X161.497 Y184.101
;TYPE:WALL-INNER
G1 F2100 E16.93094
G1 F1200 X161.458 Y184.091 E16.93228
G1 X160.82 Y183.92 E16.95425
G1 X160.802 Y183.915 E16.95487
G1 X160.768 Y183.899 E16.95612
G1 X160.171 Y183.62 E16.97804
G1 X160.158 Y183.614 E16.97851
G1 X160.124 Y183.59 E16.9799
G1 X159.584 Y183.212 E17.00182
G1 X159.556 Y183.192 E17.00296
G1 X159.541 Y183.177 E17.00367
G1 X159.075 Y182.711 E17.02559
G1 X159.055 Y182.691 E17.02653
G1 X159.039 Y182.668 E17.02746
G1 X158.85 Y182.396 E17.03848
G1 X158.66 Y182.128 E17.0494
G1 X158.642 Y182.103 E17.05043
G1 X158.631 Y182.078 E17.05134
G1 X158.353 Y181.484 E17.07315
