;FLAVOR:Marlin
;TIME:1214
;Filament used: 1.08903m
;Layer height: 0.2
;MINX:141.651
;MINY:159.401
;MINZ:0.2
;MAXX:208.349
;MAXY:190.6
;MAXZ:12
;Generated with Cura_SteamEngine 4.6.2
M140 S50
M105
M190 S50
M104 S195
M105
M109 S195
M82 ;absolute extrusion mode
M201 X500.00 Y500.00 Z100.00 E5000.00 ;Setup machine max acceleration
M203 X500.00 Y500.00 Z10.00 E50.00 ;Setup machine max feedrate
M204 P500.00 R1000.00 T500.00 ;Setup Print/Retract/Travel acceleration
M205 X8.00 Y8.00 Z0.40 E5.00 ;Setup Jerk
M220 S100 ;Reset Feedrate
M221 S100 ;Reset Flowrate

G28 ;Home
M420 S1 Z2 ;Enable ABL using saved Mesh and Fade Height

G92 E0 ;Reset Extruder
G1 Z2.0 F3000 ;Move Z Axis up
G1 X10.1 Y20 Z0.28 F5000.0 ;Move to start position
G1 X10.1 Y200.0 Z0.28 F1500.0 E15 ;Draw the first line
G1 X10.4 Y200.0 Z0.28 F5000.0 ;Move to side a little
G1 X10.4 Y20 Z0.28 F1500.0 E30 ;Draw the second line
G92 E0 ;Reset Extruder
G1 Z2.0 F3000 ;Move Z Axis up

G92 E0
G92 E0
G1 F2100 E-1.5
;LAYER_COUNT:60
;LAYER:0
M107
G0 F6000 X197.135 Y159.811 Z0.2
;TYPE:SKIRT
G1 F2100 E0
G1 F1200 X198.037 Y159.864 E0.03005
G1 X198.617 Y159.941 E0.04951
G1 X198.852 Y159.979 E0.05743
G1 X199.736 Y160.162 E0.08746
G1 X200.601 Y160.423 E0.11751
G1 X201.439 Y160.76 E0.14755
G1 X201.968 Y161.019 E0.16714
G1 X202.204 Y161.143 E0.17601
G1 X202.984 Y161.598 E0.20604
G1 X203.721 Y162.12 E0.23608
G1 X204.409 Y162.705 E0.26611
G1 X204.893 Y163.188 E0.28886
G1 X205.033 Y163.337 E0.29566
G1 X205.622 Y164.021 E0.32568
G1 X206.148 Y164.756 E0.35574
G1 X206.607 Y165.534 E0.38578
G1 X206.847 Y166.016 E0.40369
G1 X206.962 Y166.263 E0.41276
G1 X207.306 Y167.098 E0.44279
G1 X207.576 Y167.96 E0.47284
G1 X207.768 Y168.842 E0.50286
G1 X207.872 Y169.63 E0.52929
G1 X207.902 Y169.955 E0.54015
G1 X207.944 Y171.029 E0.5759
G1 X207.939 Y171.397 E0.58814
G1 X207.949 Y174.541 E0.69271
G1 X207.949 Y177.906 E0.80463
G1 X207.94 Y178.574 E0.82685
G1 X207.895 Y179.401 E0.8544
G1 X207.861 Y179.759 E0.86636
G1 X207.736 Y180.654 E0.89641
G1 X207.414 Y181.928 E0.94012
G1 X207.302 Y182.275 E0.95225
G1 X206.987 Y183.121 E0.98227
G1 X206.598 Y183.937 E1.01234
G1 X206.246 Y184.545 E1.03571
G1 X206.073 Y184.822 E1.04657
G1 X205.561 Y185.566 E1.07661
G1 X204.986 Y186.262 E1.10663
G1 X204.592 Y186.673 E1.12557
G1 X204.333 Y186.929 E1.13768
G1 X203.664 Y187.535 E1.16771
G1 X202.59 Y188.312 E1.2118
G1 X202.329 Y188.476 E1.22205
G1 X201.544 Y188.922 E1.25208
G1 X200.722 Y189.297 E1.28213
G1 X200.292 Y189.459 E1.29741
G1 X199.977 Y189.57 E1.30852
G1 X199.113 Y189.832 E1.33855
G1 X198.229 Y190.017 E1.36859
G1 X197.77 Y190.081 E1.384
G1 X197.436 Y190.12 E1.39519
G1 X196.456 Y190.187 E1.42786
G1 X195.701 Y190.2 E1.45297
G1 X154.311 Y190.199 E2.82961
G1 X153.614 Y190.189 E2.85279
G1 X152.658 Y190.13 E2.88465
G1 X152.336 Y190.095 E2.89542
G1 X151.443 Y189.958 E2.92547
G1 X150.221 Y189.635 E2.96751
G1 X149.893 Y189.526 E2.97901
G1 X149.05 Y189.203 E3.00903
G1 X148.238 Y188.807 E3.03908
G1 X147.732 Y188.513 E3.05855
G1 X147.45 Y188.338 E3.06958
G1 X146.704 Y187.828 E3.09964
G1 X146.007 Y187.254 E3.12967
G1 X145.631 Y186.899 E3.14687
G1 X145.396 Y186.665 E3.1579
G1 X144.785 Y186 E3.18794
G1 X143.991 Y184.919 E3.23255
G1 X143.81 Y184.635 E3.24375
G1 X143.359 Y183.853 E3.27377
G1 X142.833 Y182.659 E3.31717
G1 X142.762 Y182.465 E3.32404
G1 X142.448 Y181.443 E3.3596
G1 X142.392 Y181.22 E3.36725
G1 X142.211 Y180.336 E3.39726
G1 X142.14 Y179.791 E3.41554
G1 X142.119 Y179.589 E3.4223
G1 X142.065 Y178.693 E3.45215
G1 X142.051 Y177.703 E3.48508
G1 X142.051 Y172.036 E3.67357
G1 X142.061 Y171.356 E3.69619
G1 X142.121 Y170.39 E3.72838
G1 X142.156 Y170.072 E3.73902
G1 X142.295 Y169.18 E3.76904
G1 X142.627 Y167.937 E3.81184
G1 X142.74 Y167.601 E3.82363
G1 X143.066 Y166.758 E3.85369
G1 X143.464 Y165.948 E3.8837
G1 X143.767 Y165.432 E3.90361
G1 X143.937 Y165.161 E3.91425
G1 X144.451 Y164.418 E3.9443
G1 X145.32 Y163.414 E3.98846
G1 X145.555 Y163.176 E3.99959
G1 X146.217 Y162.562 E4.02962
G1 X146.931 Y162.01 E4.05963
G1 X147.343 Y161.734 E4.07613
G1 X147.631 Y161.551 E4.08748
G1 X148.414 Y161.101 E4.11751
G1 X149.233 Y160.722 E4.14753
G1 X149.726 Y160.535 E4.16507
G1 X150.034 Y160.427 E4.17592
G1 X150.898 Y160.166 E4.20594
G1 X152.168 Y159.928 E4.24892
G1 X152.478 Y159.89 E4.2593
G1 X153.557 Y159.815 E4.29528
G1 X154.539 Y159.801 E4.32794
G1 X196.438 Y159.801 E5.72151
G1 X197.135 Y159.811 E5.74469
G0 F6000 X197.141 Y159.411
G1 F1200 X198.06 Y159.464 E5.77531
G1 X198.681 Y159.546 E5.79615
G1 X198.916 Y159.584 E5.80406
G1 X199.818 Y159.77 E5.83469
G1 X200.7 Y160.034 E5.86532
G1 X201.556 Y160.373 E5.89594
G1 X202.154 Y160.664 E5.91806
G1 X202.39 Y160.788 E5.92692
G1 X203.186 Y161.252 E5.95757
G1 X203.938 Y161.782 E5.98817
G1 X204.642 Y162.376 E6.01881
G1 X205.185 Y162.914 E6.04423
G1 X205.325 Y163.063 E6.05103
G1 X205.926 Y163.76 E6.08164
G1 X206.464 Y164.507 E6.11226
G1 X206.935 Y165.299 E6.14291
G1 X207.21 Y165.847 E6.1633
G1 X207.325 Y166.094 E6.17236
G1 X207.676 Y166.945 E6.20298
G1 X207.953 Y167.823 E6.2336
G1 X208.153 Y168.721 E6.2642
G1 X208.27 Y169.594 E6.29349
G1 X208.3 Y169.919 E6.30435
G1 X208.344 Y171.034 E6.34146
G1 X208.339 Y171.401 E6.35367
G1 X208.349 Y174.541 E6.45811
G1 X208.349 Y177.912 E6.57023
G1 X208.34 Y178.58 E6.59245
G1 X208.294 Y179.439 E6.62106
G1 X208.26 Y179.797 E6.63302
G1 X208.133 Y180.709 E6.66365
G1 X207.927 Y181.607 E6.69429
G1 X207.795 Y182.051 E6.7097
G1 X207.683 Y182.398 E6.72182
G1 X207.362 Y183.261 E6.75245
G1 X206.968 Y184.093 E6.78307
G1 X206.586 Y184.757 E6.80855
G1 X206.413 Y185.034 E6.81941
G1 X205.891 Y185.793 E6.85005
G1 X205.306 Y186.504 E6.88067
G1 X204.874 Y186.958 E6.90151
G1 X204.615 Y187.214 E6.91363
G1 X203.932 Y187.832 E6.94426
G1 X203.199 Y188.389 E6.97488
G1 X202.803 Y188.65 E6.99066
G1 X202.542 Y188.814 E7.00091
G1 X201.742 Y189.27 E7.03154
G1 X200.905 Y189.654 E7.06216
G1 X200.425 Y189.836 E7.07924
G1 X200.11 Y189.947 E7.09035
G1 X199.229 Y190.215 E7.12097
G1 X198.328 Y190.406 E7.15161
G1 X197.816 Y190.478 E7.1688
G1 X197.482 Y190.517 E7.17999
G1 X196.464 Y190.587 E7.21393
G1 X195.701 Y190.6 E7.23931
G1 X154.305 Y190.599 E8.61615
G1 X153.608 Y190.589 E8.63933
G1 X152.615 Y190.528 E8.67242
G1 X152.293 Y190.493 E8.68319
G1 X151.382 Y190.354 E8.71384
G1 X150.095 Y190.014 E8.75812
G1 X149.767 Y189.905 E8.76961
G1 X148.907 Y189.577 E8.80023
G1 X148.078 Y189.176 E8.83086
G1 X147.521 Y188.853 E8.85227
G1 X147.239 Y188.678 E8.86331
G1 X146.478 Y188.159 E8.89395
G1 X145.766 Y187.576 E8.92455
G1 X145.349 Y187.182 E8.94364
G1 X145.114 Y186.948 E8.95467
G1 X144.49 Y186.271 E8.98529
G1 X143.928 Y185.542 E9.0159
G1 X143.654 Y185.134 E9.03225
G1 X143.473 Y184.85 E9.04345
G1 X143.012 Y184.053 E9.07407
G1 X142.458 Y182.796 E9.11976
G1 X142.387 Y182.602 E9.12663
G1 X142.06 Y181.541 E9.16356
G1 X142.004 Y181.318 E9.17121
G1 X141.819 Y180.416 E9.20183
G1 X141.742 Y179.832 E9.22143
G1 X141.721 Y179.63 E9.22818
G1 X141.665 Y178.699 E9.2592
G1 X141.651 Y177.703 E9.29233
G1 X141.651 Y172.03 E9.48102
G1 X141.661 Y171.35 E9.50364
G1 X141.724 Y170.346 E9.53709
G1 X141.759 Y170.028 E9.54774
G1 X141.899 Y169.118 E9.57836
G1 X142.248 Y167.809 E9.62342
G1 X142.361 Y167.473 E9.63521
G1 X142.692 Y166.614 E9.66582
G1 X143.096 Y165.787 E9.69644
G1 X143.429 Y165.219 E9.71834
G1 X143.599 Y164.948 E9.72898
G1 X144.121 Y164.19 E9.75959
G1 X144.708 Y163.48 E9.79023
G1 X145.035 Y163.133 E9.80609
G1 X145.27 Y162.895 E9.81721
G1 X145.945 Y162.269 E9.84783
G1 X146.671 Y161.703 E9.87845
G1 X147.128 Y161.396 E9.89676
G1 X147.416 Y161.213 E9.90811
G1 X148.214 Y160.754 E9.93873
G1 X149.049 Y160.365 E9.96937
G1 X149.593 Y160.157 E9.98874
G1 X149.901 Y160.049 E9.99959
G1 X150.783 Y159.783 E10.03023
G1 X152.119 Y159.531 E10.07545
G1 X152.429 Y159.493 E10.08584
G1 X153.551 Y159.415 E10.12325
G1 X154.539 Y159.401 E10.15611
G1 X196.444 Y159.401 E11.54988
G1 X197.141 Y159.411 E11.57306
G1 F2100 E10.07306
;MESH:Anita_Clip.stl
G0 F6000 X196.972 Y169.336
G0 X196.973 Y170.419
G0 X153.087 Y170.675
G0 X152.799 Y178.962
G0 X153.353 Y179.301
G0 X196.451 Y179.373
;TYPE:WALL-INNER
G1 F2100 E11.57306
G1 F1200 X196.214 Y179.399 E11.58099
G1 X195.894 Y179.4 E11.59164
G1 X153.789 Y179.4 E12.99205
G1 X153.551 Y179.374 E13.00002
G1 X153.364 Y179.308 E13.00661
G1 X153.194 Y179.203 E13.01326
G1 X153.052 Y179.061 E13.01994
G1 X152.942 Y178.887 E13.02678
G1 X152.878 Y178.703 E13.03326
G1 X152.851 Y178.467 E13.04116
G1 X152.85 Y171.539 E13.27159
G1 X152.876 Y171.301 E13.27955
G1 X152.942 Y171.114 E13.28615
G1 X153.047 Y170.944 E13.2928
G1 X153.189 Y170.802 E13.29947
G1 X153.361 Y170.694 E13.30623
G1 X153.548 Y170.628 E13.31282
G1 X153.78 Y170.601 E13.32059
G1 X196.961 Y170.6 E14.7568
G1 X197.034 Y170.608 E14.75924
G1 X197.091 Y170.635 E14.76134
G1 X197.111 Y170.655 E14.76228
G1 X197.131 Y170.686 E14.76351
G1 X197.141 Y170.714 E14.7645
G1 X197.149 Y170.788 E14.76697
G1 X197.15 Y171.209 E14.78097
G1 X197.142 Y171.284 E14.78348
G1 X197.131 Y171.316 E14.78461
G1 X197.115 Y171.341 E14.7856
G1 X197.095 Y171.361 E14.78654
G1 X197.063 Y171.381 E14.78779
G1 X197.036 Y171.391 E14.78875
G1 X196.962 Y171.399 E14.79122
G1 X196.648 Y171.4 E14.80167
G1 X154.965 Y171.4 E16.18805
G1 X154.699 Y171.431 E16.19696
G1 X154.417 Y171.528 E16.20688
G1 X154.158 Y171.689 E16.21702
G1 X153.941 Y171.907 E16.22725
G1 X153.783 Y172.16 E16.23717
G1 X153.681 Y172.447 E16.2473
G1 X153.65 Y172.716 E16.25631
G1 X153.65 Y177.239 E16.40674
G1 X153.678 Y177.545 E16.41696
G1 X153.778 Y177.833 E16.4271
G1 X153.939 Y178.092 E16.43725
G1 X154.157 Y178.309 E16.44748
G1 X154.41 Y178.467 E16.4574
G1 X154.697 Y178.569 E16.46753
G1 X154.966 Y178.6 E16.47653
G1 X195.034 Y178.6 E17.8092
G1 X195.301 Y178.569 E17.81814
G1 X195.584 Y178.472 E17.82809
G1 X195.844 Y178.308 E17.83832
G1 X196.059 Y178.094 E17.84841
G1 X196.217 Y177.84 E17.85836
G1 X196.319 Y177.553 E17.86849
G1 X196.35 Y177.284 E17.87749
G1 X196.35 Y174.99 E17.95379
G1 X196.321 Y174.704 E17.96335
G1 X196.222 Y174.417 E17.97345
G1 X196.061 Y174.158 E17.98359
G1 X195.843 Y173.941 E17.99382
G1 X195.59 Y173.783 E18.00374
G1 X195.303 Y173.681 E18.01387
G1 X195.034 Y173.65 E18.02288
G1 X191.194 Y173.65 E18.1506
G1 X191.104 Y173.642 E18.1536
G1 X191.076 Y173.632 E18.15459
G1 X191.045 Y173.613 E18.1558
G1 X191.028 Y173.596 E18.1566
G1 X191.007 Y173.562 E18.15793
G1 X190.997 Y173.534 E18.15892
G1 X190.989 Y173.463 E18.1613
G1 X190.988 Y173.107 E18.17314
G1 X190.988 Y173.041 E18.17533
G1 X190.996 Y172.966 E18.17784
G1 X191.007 Y172.934 E18.17897
G1 X191.023 Y172.909 E18.17995
G1 X191.043 Y172.889 E18.1809
G1 X191.075 Y172.869 E18.18215
G1 X191.102 Y172.859 E18.18311
G1 X191.175 Y172.851 E18.18555
G1 X191.241 Y172.851 E18.18775
G1 X196.176 Y172.85 E18.35188
G1 X196.449 Y172.877 E18.36101
G1 X196.638 Y172.943 E18.36767
G1 X196.806 Y173.047 E18.37424
G1 X196.948 Y173.189 E18.38092
G1 X197.056 Y173.361 E18.38767
G1 X197.122 Y173.548 E18.39427
G1 X197.149 Y173.78 E18.40204
G1 X197.15 Y178.429 E18.55666
G1 X197.123 Y178.699 E18.56569
G1 X197.057 Y178.888 E18.57235
G1 X196.953 Y179.056 E18.57892
G1 X196.808 Y179.201 E18.58574
G1 X196.644 Y179.305 E18.5922
G1 X196.451 Y179.373 E18.599
G0 F6000 X196.538 Y179.766
;TYPE:WALL-OUTER
G1 F1200 X196.241 Y179.799 E18.60894
G1 X195.895 Y179.8 E18.62045
G1 X153.763 Y179.8 E20.02177
G1 X153.464 Y179.767 E20.03177
G1 X153.191 Y179.671 E20.0414
G1 X152.942 Y179.517 E20.05114
G1 X152.737 Y179.312 E20.06078
G1 X152.581 Y179.064 E20.07052
G1 X152.486 Y178.794 E20.08004
G1 X152.451 Y178.49 E20.09022
G1 X152.45 Y171.513 E20.32228
G1 X152.483 Y171.214 E20.33228
G1 X152.579 Y170.941 E20.34191
G1 X152.733 Y170.692 E20.35164
G1 X152.938 Y170.487 E20.36129
G1 X153.183 Y170.333 E20.37091
G1 X153.457 Y170.236 E20.38058
G1 X153.76 Y170.201 E20.39072
G1 X196.987 Y170.2 E21.82846
G1 X197.121 Y170.215 E21.83294
G1 X197.239 Y170.256 E21.8371
G1 X197.343 Y170.321 E21.84118
G1 X197.425 Y170.403 E21.84504
G1 X197.494 Y170.512 E21.84933
G1 X197.534 Y170.627 E21.85338
G1 X197.549 Y170.761 E21.85786
G1 X197.55 Y171.234 E21.87359
G1 X197.535 Y171.371 E21.87818
G1 X197.494 Y171.489 E21.88233
G1 X197.429 Y171.593 E21.88641
G1 X197.347 Y171.675 E21.89027
G1 X197.238 Y171.744 E21.89456
G1 X197.123 Y171.784 E21.89861
G1 X196.989 Y171.799 E21.90309
G1 X196.649 Y171.8 E21.9144
G1 X154.988 Y171.8 E23.30005
G1 X154.788 Y171.823 E23.30675
G1 X154.59 Y171.891 E23.31371
G1 X154.409 Y172.004 E23.32081
G1 X154.256 Y172.157 E23.328
G1 X154.145 Y172.335 E23.33498
G1 X154.073 Y172.538 E23.34214
G1 X154.05 Y172.739 E23.34887
G1 X154.05 Y177.221 E23.49795
G1 X154.072 Y177.46 E23.50593
G1 X154.141 Y177.66 E23.51297
G1 X154.254 Y177.841 E23.52006
G1 X154.407 Y177.994 E23.52726
G1 X154.585 Y178.105 E23.53424
G1 X154.788 Y178.177 E23.5414
G1 X154.989 Y178.2 E23.54813
G1 X195.011 Y178.2 E24.87927
G1 X195.212 Y178.177 E24.88599
G1 X195.41 Y178.109 E24.89296
G1 X195.593 Y177.993 E24.90016
G1 X195.744 Y177.843 E24.90724
G1 X195.855 Y177.665 E24.91422
G1 X195.927 Y177.462 E24.92138
G1 X195.95 Y177.261 E24.92811
G1 X195.95 Y175.01 E25.00298
G1 X195.928 Y174.79 E25.01034
G1 X195.859 Y174.59 E25.01737
G1 X195.746 Y174.409 E25.02447
G1 X195.593 Y174.256 E25.03167
G1 X195.415 Y174.145 E25.03864
G1 X195.212 Y174.073 E25.04581
G1 X195.011 Y174.05 E25.05254
G1 X191.178 Y174.05 E25.18002
G1 X191.017 Y174.035 E25.1854
G1 X190.902 Y173.995 E25.18945
G1 X190.794 Y173.928 E25.19368
G1 X190.713 Y173.847 E25.19749
G1 X190.644 Y173.737 E25.20181
G1 X190.604 Y173.625 E25.20576
G1 X190.589 Y173.489 E25.21031
G1 X190.588 Y173.016 E25.22604
G1 X190.603 Y172.879 E25.23063
G1 X190.644 Y172.761 E25.23478
G1 X190.709 Y172.657 E25.23886
G1 X190.791 Y172.575 E25.24272
G1 X190.9 Y172.506 E25.24701
G1 X191.015 Y172.466 E25.25106
G1 X191.149 Y172.451 E25.25554
G1 X196.196 Y172.45 E25.42341
G1 X196.536 Y172.484 E25.43477
G1 X196.809 Y172.579 E25.44439
G1 X197.058 Y172.733 E25.45412
G1 X197.263 Y172.938 E25.46377
G1 X197.417 Y173.183 E25.47339
G1 X197.514 Y173.457 E25.48306
G1 X197.549 Y173.76 E25.4932
G1 X197.55 Y178.449 E25.64916
G1 X197.516 Y178.786 E25.66043
G1 X197.421 Y179.059 E25.67004
G1 X197.267 Y179.308 E25.67978
G1 X197.062 Y179.513 E25.68942
G1 X196.818 Y179.667 E25.69902
G1 X196.538 Y179.766 E25.7089
G0 F6000 X196.44 Y179.338
G0 X196.363 Y178.989
;TYPE:SKIN
G1 F1200 X196.189 Y179.009 E25.71472
G1 X195.892 Y179.01 E25.7246
G1 X153.813 Y179.01 E27.12415
G1 X153.64 Y178.991 E27.12994
G1 X153.532 Y178.953 E27.13375
G1 X153.433 Y178.892 E27.13762
G1 X153.361 Y178.82 E27.141
G1 X153.295 Y178.715 E27.14513
G1 X153.262 Y178.62 E27.14847
G1 X153.241 Y178.44 E27.1545
G1 X153.24 Y171.563 E27.38323
G1 X153.259 Y171.39 E27.38902
G1 X153.297 Y171.282 E27.39283
G1 X153.358 Y171.183 E27.39669
G1 X153.431 Y171.11 E27.40013
G1 X153.529 Y171.048 E27.40399
G1 X153.635 Y171.011 E27.40772
G1 X153.807 Y170.991 E27.41348
G1 X196.759 Y170.99 E28.84207
G1 X196.76 Y171.01 E28.84273
G1 X154.942 Y171.01 E30.23361
G1 X154.612 Y171.049 E30.24466
G1 X154.249 Y171.173 E30.25742
G1 X153.914 Y171.381 E30.27053
G1 X153.633 Y171.663 E30.28377
G1 X153.43 Y171.99 E30.29657
G1 X153.299 Y172.358 E30.30957
G1 X153.26 Y172.694 E30.32082
G1 X153.26 Y177.257 E30.47258
G1 X153.294 Y177.628 E30.48497
G1 X153.423 Y178.002 E30.49813
G1 X153.631 Y178.336 E30.51122
G1 X153.913 Y178.617 E30.52446
G1 X154.24 Y178.82 E30.53726
G1 X154.608 Y178.951 E30.55025
G1 X154.944 Y178.99 E30.5615
G1 X195.057 Y178.99 E31.89567
G1 X195.387 Y178.951 E31.90672
G1 X195.754 Y178.827 E31.91961
G1 X196.088 Y178.614 E31.93278
G1 X196.367 Y178.338 E31.94583
G1 X196.57 Y178.01 E31.95866
G1 X196.701 Y177.642 E31.97166
G1 X196.74 Y177.306 E31.98291
G1 X196.74 Y174.97 E32.0606
G1 X196.705 Y174.62 E32.0723
G1 X196.577 Y174.249 E32.08535
G1 X196.369 Y173.914 E32.09847
G1 X196.087 Y173.633 E32.11171
G1 X195.76 Y173.43 E32.12451
G1 X195.392 Y173.299 E32.1375
G1 X195.056 Y173.26 E32.14875
G1 X191.379 Y173.26 E32.27105
G1 X191.378 Y173.241 E32.27168
G1 X196.157 Y173.24 E32.43063
G1 X196.362 Y173.261 E32.43749
G1 X196.474 Y173.299 E32.44142
G1 X196.564 Y173.355 E32.44495
G1 X196.639 Y173.43 E32.44848
G1 X196.7 Y173.526 E32.45226
